Papirus/48x48/apps/bibletime.svg

<svg xmlns="http://www.w3.org/2000/svg" width="48" height="48" version="1.1">
 <path style="opacity:0.2" d="m 10.181818,5.0000002 c -1.2087278,0 -2.1818188,0.9557143 -2.1818188,2.1428571 V 42.857143 C 7.9999992,44.044285 8.9730902,45 10.181818,45 h 27.636365 c 1.208727,0 2.181818,-0.955715 2.181818,-2.142857 V 7.1428573 c 0,-1.1871428 -0.973091,-2.1428571 -2.181818,-2.1428571 z"/>
 <path style="fill:#3d65c2" d="m 10.181818,4.0000002 c -1.2087278,0 -2.1818188,0.9557143 -2.1818188,2.1428571 V 41.857143 C 7.9999992,43.044285 8.9730902,44 10.181818,44 h 27.636365 c 1.208727,0 2.181818,-0.955715 2.181818,-2.142857 V 6.1428573 c 0,-1.1871428 -0.973091,-2.1428571 -2.181818,-2.1428571 z"/>
 <path style="opacity:0.2" d="M 24 11 L 24 18 L 17 18 L 17 24 L 24 24 L 24 39 L 30 39 L 30 24 L 37 24 L 37 18 L 30 18 L 30 11 L 24 11 z"/>
 <path style="opacity:0.2" d="m 10.181818,4.0000002 c -1.2087278,0 -2.1818188,0.9557143 -2.1818188,2.1428571 V 41.857143 C 7.9999992,43.044285 8.9730902,44 10.181818,44 H 14 V 4.0000002 Z"/>
 <rect style="fill:#ffd972" width="6" height="28" x="24" y="10"/>
 <rect style="fill:#ffd972" width="6" height="20" x="17" y="-37" transform="rotate(90)"/>
 <path style="fill:#ffffff;opacity:0.1" d="M 10.181641 4 C 8.9729128 4 8 4.9554353 8 6.1425781 L 8 7.1425781 C 8 5.9554353 8.9729128 5 10.181641 5 L 37.818359 5 C 39.027086 5 40 5.9554353 40 7.1425781 L 40 6.1425781 C 40 4.9554353 39.027086 4 37.818359 4 L 10.181641 4 z"/>
 <circle style="opacity:0.2" cx="36" cy="37" r="11"/>
 <circle style="fill:#ff982d" cx="36" cy="36" r="11"/>
 <path style="fill:#ffffff" d="m 36,29 a 7,7 0 0 0 -7,7 7,7 0 0 0 7,7 7,7 0 0 0 7,-7 7,7 0 0 0 -7,-7 z m 0,2 a 5,5 0 0 1 5,5 5,5 0 0 1 -5,5 5,5 0 0 1 -5,-5 5,5 0 0 1 5,-5 z m -1,1 v 3 1 1 h 5 v -2 h -3 v -3 z"/>
</svg>

<svg xmlns="http://www.w3.org/2000/svg" width="48" height="48" version="1.1">
 <rect style="opacity:0.2" width="32" height="40" x="8" y="5" rx="2" ry="2"/>
 <rect style="fill:#3d65c2" width="32" height="40" x="8" y="4" rx="2" ry="2"/>
 <path style="opacity:0.2" d="M 24,11 V 18 H 17 V 24 H 24 V 39 H 30 V 24 H 37 V 18 H 30 V 11 Z"/>
 <path style="opacity:0.2" d="M 10 4 C 8.892 4 8 4.892 8 6 L 8 42 C 8 43.108 8.892 44 10 44 L 14 44 L 14 4 L 10 4 z"/>
 <path style="fill:#ffd972" d="M 24 10 L 24 17 L 17 17 L 17 23 L 24 23 L 24 38 L 30 38 L 30 23 L 37 23 L 37 17 L 30 17 L 30 10 L 24 10 z"/>
 <circle style="opacity:0.2" cx="36" cy="37" r="11"/>
 <circle style="fill:#ff982d" cx="36" cy="36" r="11"/>
 <path style="fill:#ffffff" d="M 36,29 C 32.134,29 29,32.134 29,36 29,39.866 32.134,43 36,43 39.866,43 43,39.866 43,36 43,32.134 39.866,29 36,29 Z M 36,31 C 38.761,31 41,33.239 41,36 41,38.761 38.761,41 36,41 33.239,41 31,38.761 31,36 31,33.239 33.239,31 36,31 Z M 35,32 V 37 H 40 V 35 H 37 V 32 Z"/>
 <path style="opacity:0.1;fill:#ffffff" d="M 10 4 C 8.892 4 8 4.892 8 6 L 8 7 C 8 5.892 8.892 5 10 5 L 38 5 C 39.108 5 40 5.892 40 7 L 40 6 C 40 4.892 39.108 4 38 4 L 10 4 z"/>
</svg>
